X:1
T: The Old Mill
M: 3/2
K: G
L: 1/8
Q: 1/4=220
|: "G" (B2 (Bc) d2 B2) (Bc d2) | "Em" (G2 (GA) B2) G2 (GA B2) | "C" (E2 EF G2) ((GF) "Am" GABc) | "D7" (A6 (G2 F4)) | "G" B2 (Bc) d2 B2 Bc d2 |
"Em" G2 GA B2 c2 "Bm" d2 B2 |1 "C" E2 (EF) G2 A2 "Am" B2 G2 | "D7" (D4 D2) (d2 d2) d2 :|2
"C" E3/2c/eg ^fedc "D7" BAGF | "G" (G8 G4) || "E7" e2 (B2 B2) e2 edcB | "Am" c2 (A2 A8) |
"D7" d2 (A2 A2) d2 dcBA | "G" B2 (G2 G8) | "B7" B2 (F2 F2) B2 G2 F2 |
"Em" G2 (E2 E2) (EF) G2 B2 | "Am" A2 A^G "Adim" A2 A2 B2 c2 | "D7" (A4 [A4D2]) F2 A2 ^A2 ||

